X:15764
T:South Wind
R:Air
O:Ireland
M:3/4
L:1/8
K:G
c2|:B3 AG2|B3 cd2|A4A2|A4c2|
B3 AG2|E3 DE2|G4G2|G4:|
|:d2|g4g2|g3 fe2|d4d2|d4c2|
B3 AG2|1 B3 cd2|A4A2|A4:|2 Ac3F2|(G6|G4)|]
